X: 11
T: String Quartet No. 3 in D Major, Op. 18, No. 3 mvt 3
C: Ludwig van Beethoven
%%abc-version 2.0
%%abcx-abcm2ps-target-version 5.9.1 (29 Sep 2008)
%%abc-creator hum2abc beta
%%abcx-conversion-date 2021/01/27 10:01:13
%%abc-edited-by Craig Stuart Sapp
%%abcx-initial-encoding-date 2006/03/11/
%%gracespace 0 6 6
%%humdrum-veritas 2685076093
%%humdrum-veritas-data 3593421872
%%linebreak <none>
%%barnumbers 0
L: 1/4
M: 3/4
N: Derived from quartet03-3.krn
Q: "Allegro" 1/4=152
%%staves [1 2 3 4]
V: 1 clef=treble
V: 2 clef=treble
V: 3 clef=alto
V: 4 clef=bass
K: D
[V:1] F [I:setbarnb 1]| 
[V:2] z | 
[V:3] z | 
[V:4] z | 
[V:1] F3- | 
[V:2] A,2^A, | 
[V:3] D,3 | 
[V:4] D,3 | 
[V:1] FGE | 
[V:2] B,3 | 
[V:3] G,3 | 
[V:4] G,,3- | 
[V:1] DCD | 
[V:2] A,A,A, | 
[V:3] E,E,F, | 
[V:4] G,,G,,F,,/D,,/ | 
[V:1] FEF | 
[V:2] DCz | 
[V:3] A,zz | 
[V:4] A,,zz | 
[V:1] F2G- | 
[V:2] D3- | 
[V:3] A,3 | 
[V:4] D,3 | 
[V:1] GF^E | 
[V:2] D2D | 
[V:3] B,2B, | 
[V:4] B,,2B,, | 
[V:1] F2A/^G/ | 
[V:2] CC^E | 
[V:3] A,A,B, | 
[V:4] A,,F,,C,, | 
[V:1] Fz ]|:  
[V:2] Fz ]|:  
[V:3] A,z ]|:  
[V:4] F,,z ]|:  
[V:1] A- [I:setbarnb 9]| 
[V:2] F- | 
[V:3] z | 
[V:4] z | 
[V:1] AGF | 
[V:2] FE^D | 
[V:3] B,3- | 
[V:4] B,2A, | 
[V:1] GAB | 
[V:2] EFG | 
[V:3] B,A,G, | 
[V:4] G,F,E, | 
[V:1] =cde | 
[V:2] AB=c | 
[V:3] F,D,=C | 
[V:4] D,3- | 
[V:1] A2B | 
[V:2] F2z | 
[V:3] =C2z | 
[V:4] D,2z | 
[V:1] B3- | 
[V:2] D2^D | 
[V:3] G,3 | 
[V:4] G,3 | 
[V:1] B=cA | 
[V:2] E3 | 
[V:3] =C3 | 
[V:4] =C,3- | 
[V:1] GFG | 
[V:2] DDD | 
[V:3] A,A,B, | 
[V:4] C,=C,B,,/G,,/ | 
[V:1] BA^A | 
[V:2] GFD | 
[V:3] DzD | 
[V:4] D,zF, | 
[V:1] =cB^c | 
[V:2] DzG | 
[V:3] DzA, | 
[V:4] G,zE, | 
[V:1] ede | 
[V:2] AzE | 
[V:3] A,zA, | 
[V:4] F,zC, | 
[V:1] gfg | 
[V:2] GFG | 
[V:3] A,zd | 
[V:4] D,zE, | 
[V:1] ^g3- | 
[V:2] ^G3- | 
[V:3] [D3d3]- | 
[V:4] ^E,3 | 
[V:1] g3 | 
[V:2] G3 | 
[V:3] [D3d3]- | 
[V:4] F,3- | 
[V:1] a2^a | 
[V:2] A2^A | 
[V:3] [D2d2]z | 
[V:4] F,2z | 
[V:1] ^a3 | 
[V:2] ^A3 | 
[V:3] z3 | 
[V:4] z3 | 
[V:1] bgf | 
[V:2] BGF | 
[V:3] z3 | 
[V:4] z3 | 
[V:1] ^e3 | 
[V:2] ^E3 | 
[V:3] B,3 | 
[V:4] G,3 | 
[V:1] fz^a | 
[V:2] Fz^A | 
[V:3] ^A,zz | 
[V:4] F,zz | 
[V:1] ^a3 | 
[V:2] ^A3 | 
[V:3] z3 | 
[V:4] z3 | 
[V:1] bge | 
[V:2] BGE | 
[V:3] z3 | 
[V:4] z3 | 
[V:1] d3 | 
[V:2] D3 | 
[V:3] A,3- | 
[V:4] G,,3- | 
[V:1] czd | 
[V:2] CzD | 
[V:3] A,zA, | 
[V:4] G,,2F,, | 
[V:1] f2e | 
[V:2] F2E | 
[V:3] ^A,B,G, | 
[V:4] G,,zz | 
[V:1] g2c | 
[V:2] G2C | 
[V:3] E,A,G, | 
[V:4] A,,zz | 
[V:1] dzz | 
[V:2] Dzz | 
[V:3] F,zz | 
[V:4] D,,zF, | 
[V:1] z3 | 
[V:2] z3 | 
[V:3] z3 | 
[V:4] F,G,E, | 
[V:1] z3 | 
[V:2] z3 | 
[V:3] zzA, | 
[V:4] D,C,2- | 
[V:1] z3 | 
[V:2] z3 | 
[V:3] A,B,G, | 
[V:4] C,3 | 
[V:1] z3 | 
[V:2] zzd | 
[V:3] G,F,2- | 
[V:4] D,3- | 
[V:1] z3 | 
[V:2] de=c | 
[V:3] F,3 | 
[V:4] D,3 | 
[V:1] zzb | 
[V:2] =cB2- | 
[V:3] F3- | 
[V:4] ^D,3- | 
[V:1] b=c'a | 
[V:2] B3- | 
[V:3] F3 | 
[V:4] D,3 | 
[V:1] gaf | 
[V:2] Bz^d | 
[V:3] GzA | 
[V:4] E,zF, | 
[V:1] efd | 
[V:2] BzB | 
[V:3] Gz=F | 
[V:4] G,z^G, | 
[V:1] cdB | 
[V:2] Azz | 
[V:3] EFD | 
[V:4] A,3- | 
[V:1] ABG | 
[V:2] EFD | 
[V:3] CDB, | 
[V:4] A,3 | 
[V:1] FGE | 
[V:2] CDB, | 
[V:3] A,B,G, | 
[V:4] A,,3- | 
[V:1] DEC | 
[V:2] A,B,G, | 
[V:3] F,G,G, | 
[V:4] A,,2^A,, | 
[V:1] D3 | 
[V:2] D3- | 
[V:3] F,3 | 
[V:4] B,,^A,,B,, | 
[V:1] E3 | 
[V:2] D3- | 
[V:3] B,3 | 
[V:4] ^G,,F,,G,, | 
[V:1] FBA | 
[V:2] DGF | 
[V:3] A,3- | 
[V:4] A,,3- | 
[V:1] GFE | 
[V:2] EDC | 
[V:3] A,2^A, | 
[V:4] A,,2^A,, | 
[V:1] d3 | 
[V:2] D3 | 
[V:3] B,^A,B, | 
[V:4] B,,^A,,B,, | 
[V:1] e3 | 
[V:2] [D3d3]- | 
[V:3] ^G,F,G, | 
[V:4] ^G,,F,,G,, | 
[V:1] fba | 
[V:2] [Dd]gf | 
[V:3] A,3- | 
[V:4] A,,3- | 
[V:1] gfe | 
[V:2] edc | 
[V:3] A,2G | 
[V:4] A,,3- | 
[V:1] dzz | 
[V:2] dzz | 
[V:3] FBA | 
[V:4] A,,3- | 
[V:1] zAc | 
[V:2] z3 | 
[V:3] GFE | 
[V:4] A,,2G, | 
[V:1] dzz | 
[V:2] z3 | 
[V:3] DGF | 
[V:4] F,B,A, | 
[V:1] zac' | 
[V:2] zzA | 
[V:3] EDG | 
[V:4] G,F,F, | 
[V:1] d'ac' | 
[V:2] Adc | 
[V:3] FDD | 
[V:4] D,B,,A,, | 
[V:1] d'g'c' | 
[V:2] BAG | 
[V:3] DDA, | 
[V:4] G,,F,,E,, | 
[V:1] e'3 | 
[V:2] [A,3-G3] | 
[V:3] C3 | 
[V:4] D,,F,,A,, | 
[V:1] d'z :|]|:  
[V:2] [A,F]z :|]|:  
[V:3] Dz :|]|:  
[V:4] D,z :|]|:  
[V:1]  [K:F] z [I:setbarnb 63]| 
[V:2]  [K:F] A, | 
[V:3]  [K:F] z | 
[V:4]  [K:F] z | 
[V:1] F3 | 
[V:2] A,/^C/D/E/F/G/ | 
[V:3] F,3 | 
[V:4] D,3 | 
[V:1] E3 | 
[V:2] A/^G/A/G/A/G/ | 
[V:3] E,3 | 
[V:4] C,3 | 
[V:1] D3 | 
[V:2] A/d/^c/B/A/^G/ | 
[V:3] D,3 | 
[V:4] B,,3 | 
[V:1] ^CzA | 
[V:2] Azz | 
[V:3] ^C,3 | 
[V:4] A,,3 | 
[V:1] A/^c/d/e/f/g/ | 
[V:2] F3 | 
[V:3] F,3 | 
[V:4] D,3 | 
[V:1] a/^g/a/g/a/g/ | 
[V:2] E3 | 
[V:3] E,3 | 
[V:4] C,3 | 
[V:1] a/d'/c'/b/a/^g/ | 
[V:2] D3 | 
[V:3] D,3 | 
[V:4] B,,3 | 
[V:1] aza | 
[V:2] ^C3 | 
[V:3] ^C,3 | 
[V:4] A,,3 | 
[V:1] a/=b/c'/=b/a/=b/ | 
[V:2] F3 | 
[V:3] F,3 | 
[V:4] D,3 | 
[V:1] c'/=b/a/=b/c'/=b/ | 
[V:2] ^F3 | 
[V:3] A,3 | 
[V:4] ^D,3 | 
[V:1] a/c'/e'/c'/=b/^g/ | 
[V:2] EzE | 
[V:3] CzD | 
[V:4] E,zE,, | 
[V:1] az :|]  
[V:2] Ez :|]  
[V:3] Cz :|]  
[V:4] A,,z :|]  
[V:1] z [I:setbarnb 75]| 
[V:2] G, | 
[V:3] z | 
[V:4] z | 
[V:1] _E3 | 
[V:2] G,/=B,/C/D/E/F/ | 
[V:3] _E,3 | 
[V:4] C,3 | 
[V:1] D3 | 
[V:2] G/^F/G/F/G/F/ | 
[V:3] D,3 | 
[V:4] B,,3 | 
[V:1] C3 | 
[V:2] G/c/B/A/G/^F/ | 
[V:3] C,3 | 
[V:4] A,,3 | 
[V:1] B,zD | 
[V:2] Gzz | 
[V:3] D,3 | 
[V:4] G,,3 | 
[V:1] D/^F/^G/A/B/c/ | 
[V:2] B3 | 
[V:3] B,3 | 
[V:4] G,3 | 
[V:1] d/^c/d/c/d/c/ | 
[V:2] A3 | 
[V:3] A,3 | 
[V:4] F,3 | 
[V:1] d/g/f/e/d/^c/ | 
[V:2] G3 | 
[V:3] G,3 | 
[V:4] E,3 | 
[V:1] dzA | 
[V:2] F3 | 
[V:3] F,3 | 
[V:4] D,3 | 
[V:1] A/^c/d/e/f/g/ | 
[V:2] f3 | 
[V:3] F3 | 
[V:4] D,3 | 
[V:1] a/^g/a/g/a/g/ | 
[V:2] e3 | 
[V:3] E3 | 
[V:4] C,3 | 
[V:1] a/d'/c'/b/a/^g/ | 
[V:2] d3 | 
[V:3] D3 | 
[V:4] B,,3 | 
[V:1] aza | 
[V:2] ^c3 | 
[V:3] ^C3 | 
[V:4] A,,3 | 
[V:1] a/d'/c'/b/a/^g/ | 
[V:2] d3 | 
[V:3] D3 | 
[V:4] B,,3 | 
[V:1] aza | 
[V:2] ^c3 | 
[V:3] ^C3 | 
[V:4] A,,3 | 
[V:1] a/d'/c'/b/a/^g/ | 
[V:2] d3 | 
[V:3] D3 | 
[V:4] B,,3- | 
[V:1] a/^g/a/g/a/g/ | 
[V:2] D3 | 
[V:3] D,3 | 
[V:4] B,,3 | 
[V:1] azz | 
[V:2] ^Czz | 
[V:3] E,zz | 
[V:4] A,,zz | 
[V:1] ^c'zz | 
[V:2] z3 | 
[V:3] z3 | 
[V:4] z3 | 
[V:1] e'zz | 
[V:2] z3 | 
[V:3] z3 | 
[V:4] z3 | 
[V:1] ^f'zz | 
[V:2] z3 | 
[V:3] z3 | 
[V:4] z3 | 
[V:1] g'zz | 
[V:2] z3 | 
[V:3] Gzz | 
[V:4] G,zz | 
[V:1] z3 | 
[V:2] z3 | 
[V:3] Ezz | 
[V:4] E,zz | 
[V:1] z3 | 
[V:2] z3 | 
[V:3] ^Czz | 
[V:4] ^C,zz | 
[V:1] zz^F | 
[V:2] z3 | 
[V:3] A,zz | 
[V:4] A,,zz | 
[V:1]  [K:D] F3- | 
[V:2]  [K:D] A,2^A, | 
[V:3]  [K:D] D3 | 
[V:4]  [K:D] D,3 | 
[V:1] FGE | 
[V:2] B,3 | 
[V:3] G,3 | 
[V:4] G,,3- | 
[V:1] DCD | 
[V:2] A,A,A, | 
[V:3] E,E,F, | 
[V:4] G,,G,,F,,/C,,/ | 
[V:1] FEF | 
[V:2] DCz | 
[V:3] A,zz | 
[V:4] A,,zz | 
[V:1] F2G- | 
[V:2] A,3 | 
[V:3] D3 | 
[V:4] D,3 | 
[V:1] GF^E | 
[V:2] D2D | 
[V:3] B,2B, | 
[V:4] B,,2B,, | 
[V:1] F2A/^G/ | 
[V:2] CC^E | 
[V:3] A,A,B, | 
[V:4] A,,F,,C, | 
[V:1] Fzf | 
[V:2] FzF | 
[V:3] A,zz | 
[V:4] F,,zz | 
[V:1] f3- | 
[V:2] F3- | 
[V:3] A,2^A, | 
[V:4] D,3 | 
[V:1] fge | 
[V:2] FG=F | 
[V:3] B,2B, | 
[V:4] G,,2G,- | 
[V:1] dcd | 
[V:2] DCD | 
[V:3] A,A,A, | 
[V:4] G,G,F,/D,/ | 
[V:1] fef | 
[V:2] FEF | 
[V:3] DCz | 
[V:4] A,zz | 
[V:1] f2g- | 
[V:2] F2G- | 
[V:3] A,3 | 
[V:4] D,3 | 
[V:1] gf^e | 
[V:2] GF^E | 
[V:3] D3 | 
[V:4] B,,3 | 
[V:1] f2a/^g/ | 
[V:2] F2A/^G/ | 
[V:3] CC^E | 
[V:4] A,,F,,C, | 
[V:1] fza- | 
[V:2] FzA- | 
[V:3] FzF- | 
[V:4] F,,zz | 
[V:1] agf | 
[V:2] AGF | 
[V:3] FE^D | 
[V:4] B,2A, | 
[V:1] gab | 
[V:2] GAB | 
[V:3] EFG | 
[V:4] G,F,E, | 
[V:1] =c'd'e' | 
[V:2] =cde | 
[V:3] AB=c | 
[V:4] D,3- | 
[V:1] a2b | 
[V:2] A2B | 
[V:3] F2z | 
[V:4] D,2z | 
[V:1] b3- | 
[V:2] B3- | 
[V:3] D2^D | 
[V:4] G,3 | 
[V:1] b=c'a | 
[V:2] B=cA | 
[V:3] E3 | 
[V:4] =C,3- | 
[V:1] gfg | 
[V:2] GFG | 
[V:3] A,DD | 
[V:4] C,=C,B,,/G,,/ | 
[V:1] ba^a | 
[V:2] BA^A | 
[V:3] GFD | 
[V:4] D,zF, | 
[V:1] =c'b^c' | 
[V:2] =cB^c | 
[V:3] DzG | 
[V:4] G,zE, | 
[V:1] e'd'e' | 
[V:2] ede | 
[V:3] AzA | 
[V:4] F,zC, | 
[V:1] g'f'g' | 
[V:2] gfg | 
[V:3] Az[Dd] | 
[V:4] D,zE, | 
[V:1] ^g'3- | 
[V:2] ^g3- | 
[V:3] [D3d3]- | 
[V:4] ^E,3 | 
[V:1] g'3 | 
[V:2] g3 | 
[V:3] [D3d3]- | 
[V:4] F,3- | 
[V:1] a'2^a | 
[V:2] a2^A | 
[V:3] [D2d2]z | 
[V:4] F,2z | 
[V:1] ^a3 | 
[V:2] ^A3 | 
[V:3] z3 | 
[V:4] z3 | 
[V:1] bgf | 
[V:2] BGF | 
[V:3] z3 | 
[V:4] z3 | 
[V:1] ^e3 | 
[V:2] ^E3 | 
[V:3] B,3 | 
[V:4] G,3 | 
[V:1] fz^a | 
[V:2] Fz^A | 
[V:3] ^A,zz | 
[V:4] F,zz | 
[V:1] ^a3 | 
[V:2] ^A3 | 
[V:3] z3 | 
[V:4] z3 | 
[V:1] bge | 
[V:2] BGE | 
[V:3] z3 | 
[V:4] z3 | 
[V:1] d3 | 
[V:2] D3 | 
[V:3] A,3- | 
[V:4] G,,3- | 
[V:1] czd | 
[V:2] CzD | 
[V:3] A,zA, | 
[V:4] G,,2F,, | 
[V:1] f2e | 
[V:2] F2E | 
[V:3] ^A,B,G, | 
[V:4] G,,zz | 
[V:1] g2c | 
[V:2] G2C | 
[V:3] E,A,G, | 
[V:4] A,,zz | 
[V:1] dzz | 
[V:2] Dzz | 
[V:3] F,zz | 
[V:4] D,zF, | 
[V:1] z3 | 
[V:2] z3 | 
[V:3] z3 | 
[V:4] F,G,E, | 
[V:1] z3 | 
[V:2] z3 | 
[V:3] zzA, | 
[V:4] D,C,2- | 
[V:1] z3 | 
[V:2] z3 | 
[V:3] A,B,G, | 
[V:4] C,3 | 
[V:1] z3 | 
[V:2] zzd | 
[V:3] G,F,2- | 
[V:4] D,3- | 
[V:1] z3 | 
[V:2] de=c | 
[V:3] F,3 | 
[V:4] D,3 | 
[V:1] zzb | 
[V:2] =cB2- | 
[V:3] F3- | 
[V:4] ^D,3- | 
[V:1] b=c'a | 
[V:2] B3- | 
[V:3] F3 | 
[V:4] D,3 | 
[V:1] gaf | 
[V:2] Bz^d | 
[V:3] GzA | 
[V:4] E,zF, | 
[V:1] efd | 
[V:2] BzB | 
[V:3] Gz=F | 
[V:4] G,z^G, | 
[V:1] cdB | 
[V:2] Azz | 
[V:3] EFD | 
[V:4] A,3- | 
[V:1] ABG | 
[V:2] EFD | 
[V:3] CDB, | 
[V:4] A,3 | 
[V:1] FGE | 
[V:2] CDB, | 
[V:3] A,B,G, | 
[V:4] A,,3- | 
[V:1] DEC | 
[V:2] A,B,G, | 
[V:3] F,G,G, | 
[V:4] A,,2^A,, | 
[V:1] D3 | 
[V:2] D3- | 
[V:3] F,3 | 
[V:4] B,,^A,,B,, | 
[V:1] E3 | 
[V:2] D3- | 
[V:3] B,3 | 
[V:4] ^G,,F,,G,, | 
[V:1] FBA | 
[V:2] DGF | 
[V:3] A,3- | 
[V:4] A,,3- | 
[V:1] GFE | 
[V:2] EDC | 
[V:3] A,2^A, | 
[V:4] A,,2^A,, | 
[V:1] d3 | 
[V:2] D3 | 
[V:3] B,^A,B, | 
[V:4] B,,^A,,B,, | 
[V:1] e3 | 
[V:2] [D3d3]- | 
[V:3] ^G,F,G, | 
[V:4] ^G,,F,,G,, | 
[V:1] fba | 
[V:2] [Dd]gf | 
[V:3] A,3- | 
[V:4] A,,3- | 
[V:1] gfe | 
[V:2] edc | 
[V:3] A,2G | 
[V:4] A,,3- | 
[V:1] dzz | 
[V:2] dzz | 
[V:3] FBA | 
[V:4] A,,3- | 
[V:1] zAc | 
[V:2] z3 | 
[V:3] GFE | 
[V:4] A,,2G, | 
[V:1] dzz | 
[V:2] z3 | 
[V:3] DGF | 
[V:4] F,B,A, | 
[V:1] zac' | 
[V:2] zzA | 
[V:3] EDG | 
[V:4] G,F,E, | 
[V:1] d'ac' | 
[V:2] Adc | 
[V:3] FDD | 
[V:4] D,B,,A,, | 
[V:1] d'g'c' | 
[V:2] BAG | 
[V:3] DDA, | 
[V:4] G,,F,,E,, | 
[V:1] e'3 | 
[V:2] [A,3-G3] | 
[V:3] C3 | 
[V:4] D,,F,,A,, | 
[V:1] d'z |]  
[V:2] [A,F]z |]  
[V:3] Dz |]  
[V:4] D,z |]  


